X: 4
T:Psalm) PS 2 BF12.04
M:3/2
L:1/4
S:MS12,dated 1833,Browne Coll.,Lakes
R:Psalm
O:England
A:Lakes
N:There is a symbol before the time signature.  It could be a sharp on
N:the second line down, but its got long trailing legs if it is.  It
N:could be an attempt at a clef other than treble.  The tune makes sense
N:if you play it as bass clef, but ABC doesn't seem to have a bass clef.
N:Why won't ABC show the slur from  begining of second bar after double
N:vbar to 3rd note of 3rd bar
Z:vmp.Cherri Graebe.
K:CMaj
"This is BASS CLEF - see note"B2|\
(d2c2B)(c/2B/2)|^A2F2f2|(gfedc)B|A3|!
|c2d2B2|(f>ed2cd|e4)f2|d2c4|d4|!
M:2/2 
L:1/4 
d2|fedc|(dcBA|Bcd)e|f4|!
z2zB|ddff|d3B|F3c|ddde|ffffd|c3A|B4|]
